Obsidian-SemiLight/actions/24s/code-variable.svg

<svg viewBox="0 0 24 24" xmlns="http://www.w3.org/2000/svg"><path d="m4 4v1 6h1 15v-1-6h-1-14zm1 1h14v5h-14zm-1 8v5h2v-5zm4 0v7h2v-7zm4 0v3h2v-3zm4 0v3h4v-3z" fill="#4d4d4d"/></svg>

<svg xmlns="http://www.w3.org/2000/svg" viewBox="0 0 24 24">
  <defs id="defs3051">
    <style type="text/css" id="current-color-scheme">
      .ColorScheme-Text {
        color:#4d4d4d;
      }
      </style>
  </defs>
 <path style="fill:currentColor;fill-opacity:1;stroke:none" 
     d="M 4 4 L 4 5 L 4 11 L 5 11 L 20 11 L 20 10 L 20 4 L 19 4 L 5 4 L 4 4 z M 5 5 L 19 5 L 19 10 L 5 10 L 5 5 z M 4 13 L 4 18 L 6 18 L 6 13 L 4 13 z M 8 13 L 8 20 L 10 20 L 10 13 L 8 13 z M 12 13 L 12 16 L 14 16 L 14 13 L 12 13 z M 16 13 L 16 16 L 20 16 L 20 13 L 16 13 z "
     class="ColorScheme-Text"
     />
</svg>
